X:47
T: My Sweet Blue - Eyed Darling
C: Bill Monroe
S: MandoZine TablEdit Archives
Z: TablEdited by Mike Stangeland for MandoZine
L: 1/8
Q: 240
M: 2/4
K: A
 z4 | zE Ac | "A"[e/e/]e/e/e/ e/e/e/e/ | e/e/e/e/ f/e/e/e/ | =c/B/=c/B/ A/F/F/D/ |
 EE Ac | [e/e/]e/e/e/ e/e/e/e/ | e/e/f/e/ =c/B/A/=c/ | [AA]A/A/ A/A/A/A/ |
 "A"A/A/=c/B/ =c/B/A/F/ | "D"[A/A/]A/A/A/ A/A/A/A/ | A/A/=c/B/ =c/B/A/=c/ | "A"FE/E/ E/E/E/E/ |
 Ec/B/ A/F/F | "D"DD/D/ F/A/A | "E"ec/B/ A/F/F | "A"[A/A/]A/A/A/ AE/C/ | A,4 |
